X:1
T:Title
%%score { ( 1 3 ) | ( 2 4 ) }
L:1/8
Q:1/4=110
M:4/4
K:F
V:1 treble nm="Grand Piano"
V:3 treble 
V:2 bass 
V:4 bass 
V:1
 F3 G F2 C2 | D2 E2 F2 C2 | F3 G A2 G2 | F2 d2 c4 | G3 A G2 D2 | G2 A2 B2 G2 | [DBd]3 c B2 A2 | %7
w: Mrs.~C.~H.~Morris * * *|||||||
 G2 c2 [Ec]4 | F3 G F2 C2 | D2 [B,CE]2 [A,CF]2 C2 | G3 A G2 D2 | G2 A2 B2 G2 | c3 c c2 [EB]2 | %13
w: ||||||
 A2 c2 f2 d2 | c3 B [FA]2 [EG]2 |[M:3/4] F6 |[M:1/4] C2 |[M:4/4] F6 z2 | F6 z2 | A6 z2 | %20
w: |||||||
[M:3/4] c6 |[M:1/4] c2 |[M:4/4] d3 d c2 A2 | [^CEA]3 [A,EG] [A,DF]2 [A,DF]2 | %24
w: ||||
 [B,DG]2 [C^FA]2 [DGB]2 [B,DG]2 |[M:3/4] [C-F]4 C2 |[M:1/4] C2 |[M:4/4] F6 z2 | F6 z2 | A6 z2 | %30
w: ||||||
[M:3/4] c6 |[M:1/4] c2 |[M:4/4] d3 e f2 d2 | c2 A2 F2 [DFB]2 | [CFA]3 G F2 E2 | F6 z2 |] %36
w: ||||||
V:2
 F,3 G, F,2 C,2 | D,2 E,2 F,2 C,2 | [F,A,C]3 [F,B,C] [F,CF]2 [F,B,F]2 | [F,A,]2 [F,B,F]2 [F,A,F]4 | %4
 G,3 A, G,2 D,2 | G,2 A,2 B,2 G,2 | G,3[K:treble] [A,DA] [B,DG]2 [=B,DF]2 | %7
 [CF]2 [CF]2[K:bass] [C,B,]4 | [F,A,C]3 [F,B,C] [F,A,C]2 [A,,F,]2 | [B,,F,B,]2 G,,2 F,,2 [F,A,]2 | %10
 [G,B,D]3 [G,CD] [G,B,D]2 [G,B,]2 | [G,B,D]2 [^F,A,D]2[K:treble] [G,D]2 [B,D]2 | %12
 [A,CF]3 [A,CF] [G,CE]2[K:bass] [C,C]2 | [F,CF]2[K:treble] [G,CE]2 [A,CF]2 [B,FB]2 | %14
 [CFA]3 [CG][K:bass] [C,C]2 [C,B,]2 |[M:3/4] [F,A,]6 |[M:1/4] z2 | %17
[M:4/4] [F,A,C]2 [C,A,]2 [F,A,]2 z2 | [F,A,C]2 [C,A,]2 [F,A,]2 z2 | [F,CF]2 [C,C]2 [F,C]2 z2 | %20
[M:3/4] [F,A,F]2 [C,A,]2 [F,A,]2 |[M:1/4][K:treble] [A,CF]2 |[M:4/4] [B,F]3 [B,F] [A,CF]2 [F,CF]2 | %23
 A,,3 A,, D,2 D,2 | B,,2 A,,2 G,,2 B,,2 |[M:3/4] z2 _A,2 G,2 |[M:1/4] z2 | %27
[M:4/4] [F,A,C]2 [C,A,]2 [F,A,]2 z2 | [F,A,C]2 [C,A,]2 [F,A,]2 z2 | [F,CF]2 [C,C]2 [F,C]2 z2 | %30
[M:3/4] [F,A,F]2 [C,A,]2 [F,A,]2 |[M:1/4][K:treble] [A,CF]2 |[M:4/4] [B,F]3 [B,CF] [B,DF]2 [B,F]2 | %33
 [A,F]2[K:bass] [F,CF]2 [F,A,]2 B,,2 | C,3 [C,B,C] [C,A,C]2 [C,B,C]2 | [F,A,C]6 z2 |] %36
V:3
 x8 | x8 | x8 | x8 | x8 | x8 | x8 | x8 | x8 | x8 | x8 | x8 | x8 | x8 | x8 |[M:3/4] x6 |[M:1/4] x2 | %17
[M:4/4] z2 C2 C>C D>E | z2 C2 C2 G2 | z2 F2 F>G F>d |[M:3/4] z2 F2 F2 |[M:1/4] x2 |[M:4/4] x8 | %23
 x8 | x8 |[M:3/4] A,2 z2 E2 |[M:1/4] x2 |[M:4/4] z2 C2 C>C D>E | z2 C2 C2 G2 | z2 F2 F>G F>d | %30
[M:3/4] z2 F2 F2 |[M:1/4] x2 |[M:4/4] x8 | x8 | x8 | x8 |] %36
V:4
 x8 | x8 | x8 | x8 | x8 | x8 | x3[K:treble] x5 | x4[K:bass] x4 | x8 | x8 | x8 | x4[K:treble] x4 | %12
 x6[K:bass] x2 | x2[K:treble] x6 | x4[K:bass] x4 |[M:3/4] x6 |[M:1/4] x2 |[M:4/4] x8 | x8 | x8 | %20
[M:3/4] x6 |[M:1/4][K:treble] x2 |[M:4/4] x8 | x8 | x8 |[M:3/4] C,6 |[M:1/4] x2 |[M:4/4] x8 | x8 | %29
 x8 |[M:3/4] x6 |[M:1/4][K:treble] x2 |[M:4/4] x8 | x2[K:bass] x6 | x8 | x8 |] %36

